icon-themes/breeze_svg/cmd/32/framelinecolor.svg

<svg xmlns="http://www.w3.org/2000/svg" viewBox="0 0 32 32">
 <path 
     style="fill:#4d4d4d" 
     d="M 5 5 L 5 27 L 27 27 L 27 5 L 5 5 z M 6 6 L 26 6 L 26 26 L 6 26 L 6 6 z M 21.5 14 C 20.82 16.34 19.152969 18.352844 18.417969 19.964844 C 18.160969 20.444844 18 20.9815 18 21.5625 C 18 23.4675 19.56 25 21.5 25 C 23.44 25 25 23.4675 25 21.5625 C 25 20.9825 24.839031 20.443844 24.582031 19.964844 C 23.847031 18.352844 22.18 16.34 21.5 14 z "
     />
 <path 
     style="fill:#f47750" 
     d="M 4 4 L 4 28 L 28 28 L 28 4 L 4 4 z M 5 5 L 27 5 L 27 27 L 5 27 L 5 5 z "
     />
</svg>

<svg xmlns="http://www.w3.org/2000/svg" width="32" height="32" viewBox="0 0 32 32">
  <path d="M4 4v24h24V4zm1 1h22v22H5z" fill="#f60"/>
  <path d="M5 5v22h22V5zm1 1h20v20H6z" fill="#4d4d4d"/>
  <g>
    <path d="M21.5 14c-.68 2.34-2.348 4.353-3.083 5.965-.257.48-.417 1.016-.417 1.597C18 23.467 19.56 25 21.5 25s3.5-1.533 3.5-3.438c0-.58-.16-1.118-.417-1.597C23.848 18.353 22.18 16.34 21.5 14z" fill="#4d4d4d"/>
  </g>
</svg>
